X:1
T:Title
%%score 1 { ( 2 4 ) | 3 }
L:1/8
Q:1/4=120
M:3/8
K:G
V:1 treble nm="MusicXML Part"
V:2 treble nm="MusicXML Part"
V:4 treble 
V:3 bass 
V:1
!p!"^Allegretto." B"^Johannes Brahms"B"^Nr.2 aus: \"Volks-Kinderlieder\", WoO 31"B | %1
w: Sitzt a schöns|
w: Noan, mai Schatz,|
 cB"^cresc.""^Die Nachtigall"c | dBG | BBB | cBc | d2 z |!f! BBB | cBc | dBG |!p! BBB x5 | %10
w: Vö- gerl auf'm|Dan- na- baum,|tut nix als|sin- ga und|schrain;|was muss denn|das für a|Vö- gerl sain?|Das muss a|
w: das is koan|Nach- ti- gall,|noan, mai Schatz,|das darfst nit|glaub'n;|koan Nach­ti- gall|schlägt auf oa­nam|Dan- na- baum|schlägt in a|
{/d} c c/B/ c/A/ x5 | G2 z x5 | z3 | z3 | z3 :| z3 | z3 x5 | z3 x5 | z3 x5 |] %19
w: Nach- ti- * gall *|sain!||||||||
w: Ha- sel- * nuss- *|staud'n.||||||||
V:2
!p!"^Gesang." .[GB] z .[GB] | .[GAc] z .[GAc] |"^cresc." .[GBd] z z | .[GBd] z .[GBd] | %4
 .[Gce] z .[Gce] | .[Acf] z z |!f! .[Bdg] z .[Bdg] | .[ceg] z .[ceg] | .[Bdg] z z | %9
!p! .[EB] z .[EB] x5 | .[Ec] z .[DA] x5 | .[B,G] z z x5 |!p!{/g} =f f/e/ f/d/ |{/d} c c/B/ c/A/ | %14
{/G} F F/E/ F/D/ :|!p! .[GB] z .[GB] | .[Ec] z .[Ec] x5 | .[Acd] z .[Acd] x5 | .[Bdb] z z x5 |] %19
V:3
"^Klavier." .[G,B,] z .[G,B,] | .[G,A,C] z .[G,A,C] | .[G,B,D] z z | .[G,B,D] z .[G,B,D] | %4
 .[G,CE] z .[G,CE] | .[G,A,DF] z z | .[G,B,DG] z .[G,B,DG] | .[CEG] z .[CEG] | .[G,B,DG] z z | %9
 x5 .[E,G,] z .[E,G,] | x5 .[C,A,] z .[D,F,] | x5 .[G,,G,] z z | .[G,,B,,] z .[G,,B,,] | %13
 .[G,,C,] z .[G,,C,] | %14
 .[G,,D,] z"^© 2009 by CPDL.\nThis edition can be fully distributed, duplicated, performed, and recorded.\nEdited by Christoph Lahme." .[G,,D,] :| %15
 [G,,G,] =F/E/F/D/ | x5 [G,C] C/B,/C/A,/ | x5 [G,,F,] F,/E,/F,/D,/ | x5 .[G,,G,] z z |] %19
V:4
 x3 | x3 | x3 | x3 | x3 | x3 | x3 | x3 | x3 | x8 | x8 | x8 | G z G | E z E | C z C :| [B,=F] x2 | %16
 x8 | x8 | x8 |] %19

